!!!OTL: SUMMER SUMMER MAJE
!!!ARE: Europa, Mitteleuropa, Deutschland, Hessen, Bergstrasse; Odenwald
!!!SCT: E1222
!!!YEM: Copyright 1995, estate of Helmut Schaffrath.
**kern
*ICvox
*Ivox
*M2/4
*k[b-]
*F:
=1
{8cc
8cc
8cc
8dd
=2
4cc
8a}
{8b-
=3
8cc
8cc
8cc
8dd
=4
4cc
8a}
{8b-
=5
16cc
16cc
8cc
8cc
8dd
=6
4.cc}
{8b-
=7
8a
8a
8g
8g
=8
4f
4r}
=9
{4cc
4dd
=10
4.cc}
{8b-
=11
8a
8a
8g
8g
=12
4f
4r}
=13
{8cc
8cc
4a
=14
8cc
8cc
4a}
=15
{8cc
8cc
8dd
8dd
=16
8cc
8cc
4a}
=17
{4cc
8a
8r
=18
4cc
8a}
{8b-
=19
8cc
8cc
8cc
8dd
=20
8cc
8cc
8a}
{8b-
=21
8cc
8cc
8cc
8dd
=22
4cc
8a}
{8b-
=23
8cc
8cc
8cc
8dd
=24
4cc
8a
8r}
=25
{4cc
4dd
=26
4.cc}
{8b-
=27
8a
8a
8g
8g
=28
4f
8r}
{16a
16b-
=29
8cc
8cc
8cc
8dd
=30
8cc
8cc
8a}
{8b-
=31
8cc
8cc
8cc
8dd
=32
8cc
8cc
4a}
=33
{8cc
8cc
8cc
8dd
=34
4.cc}
{8b-
=35
8a
8a
8g
8g
=36
4f
4r}
==
!!!AGN: Ansinge -, Brauchtums - Lied, Kirchen - Fest, Sommer - Tags - Lied
!!!ONB: ESAC (Essen Associative Code) Database: ERK3
!!!AMT: simple duple
!!!AIN: vox
!!!EED: Helmut Schaffrath
!!!EEV: 1.0
*-
